X: 9
I: linebreak $
T: Pennsic Dance
C: Emil Allzuwissender
K: C major
M: 6/8
L: 1/8
"Am"efe d2e | "G"c2d B3 | "Am"cBA cBA | "Am"c3 "G"d3 | "Am"efe d2e | "G"c2d B2G | 
"Am"A2c "G"c2B | "C"c3 c3 :: "Am"e3 g3 | "C"e2f "Em"e2c | "G"B2c dcB | "Dm"d3 e3 | 
"Am"e3 f3 | "G"d2e d2B | "Dm"A2B cBA | "C"c3 "G"d3 | "Am"efe d2e | "Em"c2d B2G | 
"Am"A2c "G"c2B | "Am"c3 "G"d3 :| "Am"efe d2e | "G"c2d B2G | "Am"A2c "G"c2B | "C"c3 c3 |] 


